X:1
T:O Comforter, Gentle and Tender
T:Albert Benjamin Simpson, 1897
T:O Comforter, Gentle and Tender
T:Public Domain
T:Public Domain
T:Public Domain
C:Albert Benjamin Simpson, 1897
Z:Public Domain
%%score ( 1 2 ) ( 3 4 )
L:1/8
M:6/8
K:G
V:1 treble 
V:2 treble 
V:3 bass 
V:4 bass 
V:1
 D | [DG][DF][DG] [GB][DG]>[EG] | [FA]3 [DG]2 [DB] | E[^DF][EG] [^CA][CG][CE] | D3- D([B,G][DB]) | %5
w: 1.~O|fort- er, gen- tle and ten-|der, O ho-|ly and heav- en- ly Dove;|yield- * ing *|
w: 2.~Come|as the wind o’er the o-|cean, Or soft|as the breath- ing of morn,|du- * ing *|
w: 3.~O|as the heart search- ing fi-|re, O come|as the sin cleans- ing flood;|sume * us *|
w: 4.~A-|us with glad- ness and heal-|ing; Bap- tize|us with pow’r from on high;|come * with *|
 [Gd][G^c][Gd] [Ge][Gd][DB] | [CA]3 [B,G]2 [^A,E] | [B,D][DG][GB] [Fd][FA]>[FB] | G3- G2 || %9
w: hearts in sur- ren- der, We’re|wait- ing Thy|full- ness to prove. We’re wait-|ing, *|
w: spir- it’s com- mo- tion And|cheer- ing when|hearts are for- lorn. I’m wait-|ing, *|
w: ho- ly de- si- re, And|fill with the|full- ness of God. * *||
w: fill- ing and seal- ing, While|low at Thy|foot- stool we lie. * *||
"^Refrain" [DG] | [FA]3 D2 D | [DB]3 [DG]2 [GB] | [GA]2 [GA] [GA][GB][GA] | (F2 G [Ad]2) [Gd] | %14
w: wait-|ing For Thee,|en- ly Dove;|We’re yield- ing our hearts|to * * sur-|
w: wai-|ting For Thee,|en- ly Dove;|I’m yield- ing my heart|in * * sur-|
w: |||||
w: |||||
 [Gd][G^c][Gd] [Ge][Gd][DB] | [CA]3 [B,G]2 [^A,E] | [B,D][DG][GB] [Fd][FA]>[FB] | [DG]3 z2 |] %18
w: der, We’re wait- ing Thy full-|ness to prove.|||
w: der, I’m wait- ing Thy full-|ness to prove.|||
w: ||||
w: ||||
V:2
 D | x6 | x6 | E x5 | D3- D x2 | x6 | x6 | x6 | G3- G2 || x | x3 D2 D | x6 | x6 | d3- x3 | x6 | %15
w: Com-|||We’re|our *||||we’re *||O heav-|||ren-||
w: strong|||Sub-|our *||||I’m *||O heav-|||ren-||
w: come|||Con-|with *|||||||||||
w: noint|||O|Thy *|||||||||||
 x6 | x6 | x5 |] %18
w: |||
w: |||
w: |||
w: |||
V:3
 [G,B,] | [G,B,][G,A,][G,B,] [G,D][G,B,]>[E,^C] | (D2 C) [G,B,]2 [G,,G,] | %3
w: ~|~ ~ ~ ~ ~ ~|~ * ~ ~|
 [C,G,][B,,B,][E,B,] [A,,A,][A,,E,][A,,G,] | [D,F,]3- [D,F,] [G,,G,]2 | %5
w: ~ ~ ~ ~ ~ ~|~ * ~|
 [G,B,][G,^A,][G,B,] [C,C][B,,D][G,,G,] | [D,F,]3 [E,G,]2 [^C,G,] | %7
w: ~ ~ ~ ~ ~ ~|~ ~ ~|
 [D,G,][D,B,][D,D] [D,C][D,C]>[D,D] | [G,B,]3- [G,B,]2 || [G,B,] | ([D,D]2 [D,D]) [F,A,]2 [F,A,] | %11
w: ~ ~ ~ ~ ~ ~|~ *|waiting,|wait- * ing, waiting~for|
 ([G,,G,][G,,G,][G,,G,]) [G,B,]2 [G,D] | [E,^C]2 [E,C] [A,C][A,D][A,C] | D2 B, [D,C]2 [G,B,] | %14
w: Thee, * * * *|||
 [G,B,][G,^A,][G,B,] [G,C][G,B,]G, | (D,2 ^D,) [E,G,]2 [^C,G,] | %16
w: ||
 [D,G,][D,B,][D,D] [D,C][D,C]>[D,D] | [G,B,]3 z2 |] %18
w: ||
V:4
 x | x6 | D,3 x3 | x6 | x6 | x6 | x6 | x6 | x5 || x | x6 | x6 | x6 | D,3- x3 | x5 G, | F,3 x3 | %16
w: ||~||||||||||||||
 x6 | x5 |] %18
w: ||

